public/library/solana-foundation-text-light.svg

<svg width="372" height="61" viewBox="0 0 372 61" fill="none" xmlns="http://www.w3.org/2000/svg">
<path d="M115.85 5.93643H95.7869V10.9523H110.517C113.484 10.9523 115.85 13.3543 115.85 16.2861V20.6662C115.85 23.6333 113.484 25.9999 110.517 25.9999H90.771V20.9841H110.835V15.9682H96.1048C93.1376 15.9682 90.771 13.5662 90.771 10.6344V6.25434C90.771 3.2872 93.1376 0.920556 96.1048 0.920556H115.85V5.93643Z" fill="black"/>
<path d="M140.172 0.920556C143.139 0.920556 145.541 3.2872 145.541 6.25434V20.6662C145.541 23.6333 143.139 25.9999 140.172 25.9999H124.736C121.769 25.9999 119.402 23.6333 119.402 20.6662V6.25434C119.402 3.2872 121.769 0.920556 124.736 0.920556H140.172ZM140.49 5.93643H124.418V20.9841H140.49V5.93643Z" fill="black"/>
<path d="M154.472 20.8074H174.041V26.2119H152.53C150.622 26.2119 149.068 24.6577 149.068 22.7502V0.708618H154.472V20.8074Z" fill="black"/>
<path d="M199.355 0.920556C201.757 0.920556 203.7 2.828 203.7 5.22997V25.9999H198.649V17.7697H182.577V25.9999H177.561V5.22997C177.561 2.828 179.468 0.920556 181.87 0.920556H199.355ZM198.649 5.93643H182.577V12.7538H198.649V5.93643Z" fill="black"/>
<path d="M228.315 0.920556H233.366V22.7502C233.366 24.5517 231.882 25.9999 230.081 25.9999H226.195C224.959 26.0353 223.864 25.3641 223.299 24.2691L213.55 5.93643H212.243V25.9999H207.227V4.2056C207.227 2.3688 208.675 0.920556 210.476 0.920556H214.574C215.775 0.920556 216.905 1.55637 217.47 2.65139L227.22 20.9841H228.315V0.920556Z" fill="black"/>
<path d="M258.687 0.920556C261.089 0.920556 263.032 2.828 263.032 5.22997V25.9999H257.98V17.7697H241.908V25.9999H236.893V5.22997C236.893 2.828 238.8 0.920556 241.202 0.920556H258.687ZM257.98 5.93643H241.908V12.7538H257.98V5.93643Z" fill="black"/>
<path d="M115.356 38.9364H95.7869V43.9523H115.356V48.9682H95.7869V58.9999H90.771V33.9206H115.356V38.9364Z" fill="black"/>
<path d="M139.655 33.9206C142.622 33.9206 145.024 36.2872 145.024 39.2543V53.6662C145.024 56.6333 142.622 58.9999 139.655 58.9999H124.218C121.251 58.9999 118.885 56.6333 118.885 53.6662V39.2543C118.885 36.2872 121.251 33.9206 124.218 33.9206H139.655ZM139.972 38.9364H123.9V53.9841H139.972V38.9364Z" fill="black"/>
<path d="M169.638 33.9206H174.69V50.593C174.654 55.2557 170.91 58.9999 166.247 58.9999H156.957C152.295 58.9999 148.55 55.2557 148.55 50.593V33.9206H153.566V49.5687C153.566 52.006 155.544 53.9841 157.982 53.9841H165.223C167.66 53.9841 169.638 52.006 169.638 49.5687V33.9206Z" fill="black"/>
<path d="M199.304 33.9206H204.355V55.7502C204.355 57.5517 202.872 58.9999 201.07 58.9999H197.185C195.948 59.0353 194.853 58.3641 194.288 57.2691L184.539 38.9364H183.232V58.9999H178.216V37.2056C178.216 35.3688 179.665 33.9206 181.466 33.9206H185.564C186.764 33.9206 187.895 34.5564 188.46 35.6514L198.209 53.9841H199.304V33.9206Z" fill="black"/>
<path d="M225.579 33.9206C230.242 33.9206 233.986 37.7001 234.021 42.3274V50.593C233.986 55.2557 230.242 58.9999 225.579 58.9999H207.882V33.9206H225.579ZM228.97 43.3871C228.97 40.9145 226.992 38.9364 224.555 38.9364H212.898V53.9841H224.555C226.992 53.9841 228.97 52.006 228.97 49.5687V43.3871Z" fill="black"/>
<path d="M259.342 33.9206C261.744 33.9206 263.687 35.828 263.687 38.23V58.9999H258.636V50.7697H242.564V58.9999H237.548V38.23C237.548 35.828 239.455 33.9206 241.857 33.9206H259.342ZM258.636 38.9364H242.564V45.7538H258.636V38.9364Z" fill="black"/>
<path d="M267.214 33.9206H292.293V38.9364H282.262V58.9999H277.246V38.9364H267.214V33.9206Z" fill="black"/>
<path d="M300.861 58.9999H295.845V33.9206H300.861V58.9999Z" fill="black"/>
<path d="M325.17 33.9206C328.137 33.9206 330.539 36.2872 330.539 39.2543V53.6662C330.539 56.6333 328.137 58.9999 325.17 58.9999H309.733C306.766 58.9999 304.4 56.6333 304.4 53.6662V39.2543C304.4 36.2872 306.766 33.9206 309.733 33.9206H325.17ZM325.488 38.9364H309.416V53.9841H325.488V38.9364Z" fill="black"/>
<path d="M355.153 33.9206H360.205V55.7502C360.205 57.5517 358.721 58.9999 356.92 58.9999H353.034C351.798 59.0353 350.703 58.3641 350.138 57.2691L340.388 38.9364H339.081V58.9999H334.066V37.2056C334.066 35.3688 335.514 33.9206 337.315 33.9206H341.413C342.614 33.9206 343.744 34.5564 344.309 35.6514L354.058 53.9841H355.153V33.9206Z" fill="black"/>
<g clip-path="url(#clip0_465_2417)">
<path d="M64.5151 47.4369L53.81 58.9386C53.5773 59.1884 53.2957 59.3876 52.9828 59.5238C52.6699 59.6599 52.3324 59.7301 51.9913 59.7299H1.24281C1.00066 59.7299 0.763792 59.659 0.5613 59.526C0.358808 59.393 0.199517 59.2036 0.102999 58.9811C0.00647997 58.7586 -0.023062 58.5128 0.0180025 58.2737C0.059067 58.0346 0.168949 57.8128 0.334148 57.6354L11.0475 46.1338C11.2796 45.8846 11.5603 45.6858 11.8722 45.5497C12.1841 45.4136 12.5205 45.343 12.8607 45.3424H63.6064C63.8486 45.3425 64.0855 45.4133 64.288 45.5464C64.4905 45.6794 64.6497 45.8688 64.7463 46.0912C64.8428 46.3137 64.8723 46.5596 64.8313 46.7987C64.7902 47.0377 64.6803 47.2596 64.5151 47.4369V47.4369ZM53.81 24.2759C53.5773 24.026 53.2957 23.8268 52.9828 23.6907C52.6699 23.5546 52.3324 23.4844 51.9913 23.4846H1.24281C1.00066 23.4846 0.763792 23.5555 0.5613 23.6885C0.358808 23.8215 0.199517 24.0109 0.102999 24.2334C0.00647997 24.4558 -0.023062 24.7017 0.0180025 24.9408C0.059067 25.1799 0.168949 25.4017 0.334148 25.5791L11.0475 37.0807C11.2796 37.3299 11.5603 37.5287 11.8722 37.6648C12.1841 37.8009 12.5205 37.8715 12.8607 37.872H63.6064C63.8486 37.872 64.0855 37.8012 64.288 37.6681C64.4905 37.5351 64.6497 37.3457 64.7463 37.1232C64.8428 36.9008 64.8723 36.6549 64.8313 36.4158C64.7902 36.1768 64.6803 35.9549 64.5151 35.7776L53.81 24.2759ZM1.24281 16.0142H51.9913C52.3324 16.0143 52.6699 15.9442 52.9828 15.808C53.2957 15.6719 53.5773 15.4727 53.81 15.2229L64.5151 3.72119C64.6803 3.54383 64.7902 3.32199 64.8313 3.08292C64.8723 2.84385 64.8428 2.59798 64.7463 2.3755C64.6497 2.15302 64.4905 1.96364 64.288 1.83061C64.0855 1.69759 63.8486 1.62672 63.6064 1.62671L12.8607 1.62671C12.5205 1.62729 12.1841 1.69782 11.8722 1.83393C11.5603 1.97004 11.2796 2.16884 11.0475 2.41802L0.33691 13.9197C0.17187 14.0969 0.0620369 14.3185 0.0208792 14.5573C-0.0202785 14.7961 0.00902907 15.0417 0.105208 15.2641C0.201386 15.4865 0.360254 15.6759 0.562329 15.8091C0.764403 15.9424 1.0009 16.0136 1.24281 16.0142V16.0142Z" fill="url(#paint0_linear_465_2417)"/>
</g>
<defs>
<linearGradient id="paint0_linear_465_2417" x1="5.47404" y1="61.1147" x2="58.7991" y2="1.10951" gradientUnits="userSpaceOnUse">
<stop offset="0.08" stop-color="#9945FF"/>
<stop offset="0.3" stop-color="#8752F3"/>
<stop offset="0.5" stop-color="#5497D5"/>
<stop offset="0.6" stop-color="#43B4CA"/>
<stop offset="0.72" stop-color="#28E0B9"/>
<stop offset="0.97" stop-color="#19FB9B"/>
</linearGradient>
<clipPath id="clip0_465_2417">
<rect width="64.8493" height="58.1032" fill="white" transform="translate(0 1.62671)"/>
</clipPath>
</defs>
</svg>

<svg xmlns="http://www.w3.org/2000/svg" width="372" height="61" fill="none" viewBox="0 0 372 61"><path fill="#000" d="M115.85 5.936H95.787v5.016h14.73a5.33 5.33 0 0 1 5.333 5.334v4.38A5.306 5.306 0 0 1 110.517 26H90.771v-5.016h20.064v-5.016h-14.73a5.33 5.33 0 0 1-5.334-5.334v-4.38A5.307 5.307 0 0 1 96.105.921h19.745zM140.172.92c2.967 0 5.369 2.367 5.369 5.334v14.412c0 2.967-2.402 5.334-5.369 5.334h-15.436a5.307 5.307 0 0 1-5.334-5.334V6.254a5.307 5.307 0 0 1 5.334-5.333zm.318 5.016h-16.072v15.048h16.072zM154.472 20.807h19.569v5.405H152.53a3.467 3.467 0 0 1-3.462-3.462V.71h5.404zM199.355.92c2.402 0 4.345 1.908 4.345 4.31V26h-5.051v-8.23h-16.072V26h-5.016V5.23A4.28 4.28 0 0 1 181.87.92zm-.706 5.016h-16.072v6.818h16.072zM228.315.92h5.051v21.83c0 1.802-1.484 3.25-3.285 3.25h-3.886c-1.236.035-2.331-.636-2.896-1.73L213.55 5.935h-1.307V26h-5.016V4.206c0-1.837 1.448-3.285 3.249-3.285h4.098c1.201 0 2.331.635 2.896 1.73l9.75 18.333h1.095zM258.687.92c2.402 0 4.345 1.908 4.345 4.31V26h-5.052v-8.23h-16.072V26h-5.015V5.23a4.28 4.28 0 0 1 4.309-4.31zm-.707 5.016h-16.072v6.818h16.072zM115.356 38.936h-19.57v5.016h19.57v5.016h-19.57V59h-5.015V33.92h24.585zM139.655 33.92c2.967 0 5.369 2.367 5.369 5.334v14.412c0 2.967-2.402 5.334-5.369 5.334h-15.437a5.306 5.306 0 0 1-5.333-5.334V39.254a5.306 5.306 0 0 1 5.333-5.333zm.317 5.016H123.9v15.048h16.072zM169.638 33.92h5.052v16.673c-.036 4.663-3.78 8.407-8.443 8.407h-9.29a8.38 8.38 0 0 1-8.407-8.407V33.921h5.016v15.648a4.417 4.417 0 0 0 4.416 4.415h7.241a4.417 4.417 0 0 0 4.415-4.415zM199.304 33.92h5.051v21.83c0 1.802-1.483 3.25-3.285 3.25h-3.885c-1.237.035-2.332-.636-2.897-1.73l-9.749-18.334h-1.307V59h-5.016V37.206c0-1.837 1.449-3.285 3.25-3.285h4.098c1.2 0 2.331.635 2.896 1.73l9.749 18.333h1.095zM225.579 33.92c4.663 0 8.407 3.78 8.442 8.407v8.266c-.035 4.663-3.779 8.407-8.442 8.407h-17.697V33.92zm3.391 9.467c0-2.473-1.978-4.45-4.415-4.45h-11.657v15.047h11.657a4.417 4.417 0 0 0 4.415-4.415zM259.342 33.92c2.402 0 4.345 1.908 4.345 4.31V59h-5.051v-8.23h-16.072V59h-5.016V38.23a4.28 4.28 0 0 1 4.309-4.31zm-.706 5.016h-16.072v6.818h16.072zM267.214 33.92h25.079v5.016h-10.031V59h-5.016V38.936h-10.032zM300.861 59h-5.016V33.92h5.016zM325.17 33.92c2.967 0 5.369 2.367 5.369 5.334v14.412c0 2.967-2.402 5.334-5.369 5.334h-15.437a5.306 5.306 0 0 1-5.333-5.334V39.254a5.306 5.306 0 0 1 5.333-5.333zm.318 5.016h-16.072v15.048h16.072zM355.153 33.92h5.052v21.83c0 1.802-1.484 3.25-3.285 3.25h-3.886c-1.236.035-2.331-.636-2.896-1.73l-9.75-18.334h-1.307V59h-5.015V37.206c0-1.837 1.448-3.285 3.249-3.285h4.098c1.201 0 2.331.635 2.896 1.73l9.749 18.333h1.095z"/><g clip-path="url(#a)"><path fill="url(#b)" d="M64.515 47.437 53.81 58.939a2.49 2.49 0 0 1-1.819.79H1.243a1.24 1.24 0 0 1-1.225-1.455c.041-.24.15-.461.316-.639l10.713-11.501a2.49 2.49 0 0 1 1.814-.792h50.745a1.242 1.242 0 0 1 1.225 1.457c-.04.239-.15.46-.316.638M53.81 24.276a2.48 2.48 0 0 0-1.819-.791H1.243A1.24 1.24 0 0 0 .018 24.94c.041.239.15.46.316.638l10.713 11.502a2.49 2.49 0 0 0 1.814.791h50.745a1.24 1.24 0 0 0 1.14-.749 1.25 1.25 0 0 0-.23-1.345zM1.243 16.014H51.99a2.48 2.48 0 0 0 1.819-.791L64.515 3.72a1.246 1.246 0 0 0-.909-2.094H12.861a2.48 2.48 0 0 0-1.814.791L.337 13.92a1.246 1.246 0 0 0 .906 2.094"/></g><defs><linearGradient id="b" x1="5.474" x2="58.799" y1="61.115" y2="1.11" gradientUnits="userSpaceOnUse"><stop offset=".08" stop-color="#9945ff"/><stop offset=".3" stop-color="#8752f3"/><stop offset=".5" stop-color="#5497d5"/><stop offset=".6" stop-color="#43b4ca"/><stop offset=".72" stop-color="#28e0b9"/><stop offset=".97" stop-color="#19fb9b"/></linearGradient><clipPath id="a"><path fill="#fff" d="M0 1.627h64.849V59.73H0z"/></clipPath></defs></svg>
